src/images/icons/tombstone.svg

<?xml version="1.0" encoding="UTF-8"?>
<svg width="78px" height="80px" viewBox="0 0 78 80" version="1.1" xmlns="http://www.w3.org/2000/svg" xmlns:xlink="http://www.w3.org/1999/xlink">
    <!-- Generator: Sketch 49.3 (51167) - http://www.bohemiancoding.com/sketch -->
    <title>tombstone</title>
    <desc>Created with Sketch.</desc>
    <g id="Marvel" stroke="none" stroke-width="1" fill="none" fill-rule="evenodd">
        <g id="Marvel_Delete" transform="translate(-817.000000, -326.000000)" fill="#848E99" fill-rule="nonzero">
            <g id="Chat" transform="translate(529.000000, 244.000000)">
                <g id="Чат" transform="translate(0.000000, 16.000000)">
                    <g id="Group" transform="translate(87.000000, 66.000000)">
                        <g id="tombstone" transform="translate(201.000000, 0.000000)">
                            <circle id="Oval" cx="45.4368811" cy="61.8234698" r="1.41582846"></circle>
                            <circle id="Oval" cx="51.100039" cy="67.4867836" r="1.41582846"></circle>
                            <circle id="Oval" cx="26.5593762" cy="67.4867836" r="1.41582846"></circle>
                            <path d="M47.3246004,35.8671345 L30.3349708,35.8671345 C29.5529045,35.8671345 28.9191423,36.5010526 28.9191423,37.282963 C28.9191423,38.0648733 29.5529045,38.6987914 30.3349708,38.6987914 L47.3246004,38.6987914 C48.1066667,38.6987914 48.7404288,38.0648733 48.7404288,37.282963 C48.7404288,36.5008967 48.1066667,35.8671345 47.3246004,35.8671345 Z" id="Shape"></path>
                            <path d="M47.3246004,28.3161014 L30.3349708,28.3161014 C29.5529045,28.3161014 28.9191423,28.9500195 28.9191423,29.7319298 C28.9191423,30.5138402 29.5529045,31.1477583 30.3349708,31.1477583 L47.3246004,31.1477583 C48.1066667,31.1477583 48.7404288,30.5138402 48.7404288,29.7319298 C48.7404288,28.9500195 48.1066667,28.3161014 47.3246004,28.3161014 Z" id="Shape"></path>
                            <path d="M38.8297856,7.55103314 C33.9527485,7.55103314 29.3211696,9.11126706 25.4361014,12.062846 C24.8135673,12.5359844 24.6923977,13.4240936 25.1652242,14.0466277 C25.6380507,14.6691618 26.5263158,14.7906433 27.1490058,14.3175049 C30.5376998,11.7431579 34.5766862,10.3825341 38.8297856,10.3825341 C49.4991033,10.3825341 58.1791813,19.0626121 58.1791813,29.7319298 L58.1791813,50.0251072 C58.1791813,50.8070175 58.8129435,51.4409357 59.5950097,51.4409357 C60.377076,51.4409357 61.0108382,50.8070175 61.0108382,50.0251072 L61.0108382,29.7319298 C61.0106823,17.5012865 51.0605848,7.55103314 38.8297856,7.55103314 Z" id="Shape"></path>
                            <path d="M76.1125926,74.56577 C74.3801949,74.56577 72.7290448,75.2012476 71.4521637,76.3178168 C70.6206628,75.5904873 69.6297856,75.0690058 68.5614035,74.7926706 L68.5614035,29.7319298 C68.5617154,13.3376998 55.2240156,0 38.8297856,0 C22.4355556,0 9.09785575,13.3376998 9.09785575,29.7319298 L9.09785575,74.7926706 C8.02978558,75.0690058 7.03890838,75.5906433 6.20709552,76.3178168 C4.93037037,75.2012476 3.27922027,74.56577 1.54682261,74.56577 C0.764756335,74.56577 0.130994152,75.1996881 0.130994152,75.9815984 C0.130994152,76.7635088 0.764756335,77.3974269 1.54682261,77.3974269 C2.94066277,77.3974269 4.24764133,78.0837427 5.04265107,79.2336842 C5.3071345,79.6159064 5.74222222,79.8442105 6.20725146,79.8442105 C6.6722807,79.8442105 7.10736842,79.6162183 7.37185185,79.2336842 C8.16701754,78.0838986 9.47384016,77.3974269 10.8675244,77.3974269 C12.2612086,77.3974269 13.5683431,78.0837427 14.3633528,79.2336842 C14.6278363,79.6159064 15.062924,79.8442105 15.5279532,79.8442105 C15.9929825,79.8442105 16.4280702,79.6162183 16.6925536,79.2336842 C17.4877193,78.0838986 18.7945419,77.3974269 20.1883821,77.3974269 C21.5822222,77.3974269 22.8892008,78.0837427 23.6842105,79.2336842 C23.948694,79.6159064 24.3837817,79.8442105 24.8488109,79.8442105 C25.3138402,79.8442105 25.7489279,79.6162183 26.0134113,79.2336842 C26.808577,78.0838986 28.1153996,77.3974269 29.5092398,77.3974269 C30.9030799,77.3974269 32.2100585,78.0837427 33.0050682,79.2336842 C33.2695517,79.6159064 33.7046394,79.8442105 34.1696686,79.8442105 C34.6346979,79.8442105 35.0697856,79.6162183 35.334269,79.2336842 C36.1294347,78.0838986 37.4362573,77.3974269 38.8300975,77.3974269 C40.2239376,77.3974269 41.5309162,78.0837427 42.3259259,79.2336842 C42.5904094,79.6159064 43.0254971,79.8442105 43.4905263,79.8442105 C43.9555556,79.8442105 44.3906433,79.6162183 44.6551267,79.2336842 C45.4502924,78.0838986 46.757115,77.3974269 48.1509552,77.3974269 C49.5447953,77.3974269 50.8517739,78.0837427 51.6469396,79.2336842 C51.911423,79.6159064 52.3465107,79.8442105 52.81154,79.8442105 C53.2765692,79.8442105 53.7116569,79.6162183 53.9761404,79.2336842 C54.771306,78.0838986 56.0781287,77.3974269 57.4721248,77.3974269 C58.8659649,77.3974269 60.1729435,78.0837427 60.9679532,79.2336842 C61.2324366,79.6159064 61.6675244,79.8442105 62.1325536,79.8442105 C62.5975828,79.8442105 63.0326706,79.6162183 63.297154,79.2336842 C64.0923197,78.0838986 65.3991423,77.3974269 66.7929825,77.3974269 C68.1868226,77.3974269 69.4938012,78.0837427 70.2889669,79.2336842 C70.5534503,79.6159064 70.988538,79.8442105 71.4535673,79.8442105 C71.9185965,79.8442105 72.3536842,79.6162183 72.6181676,79.2336842 C73.4133333,78.0838986 74.7201559,77.3974269 76.114152,77.3974269 C76.8962183,77.3974269 77.5299805,76.7635088 77.5299805,75.9815984 C77.5298246,75.1996881 76.8946589,74.56577 76.1125926,74.56577 Z M65.7299025,74.6474854 C64.3928265,74.8508382 63.1443275,75.4322027 62.1316179,76.3178168 C61.7840156,76.0138791 61.4078752,75.7469006 61.0106823,75.5173489 L61.0106823,55.6884211 C61.0106823,54.9065107 60.3769201,54.2725926 59.5948538,54.2725926 C58.8127875,54.2725926 58.1790253,54.9065107 58.1790253,55.6884211 L58.1790253,74.6024172 C57.9449513,74.5788694 57.7090058,74.56577 57.4711891,74.56577 C55.7387914,74.56577 54.0876413,75.2012476 52.8107602,76.3178168 C51.5338791,75.2010916 49.882729,74.56577 48.1503314,74.56577 C46.4179337,74.56577 44.7667836,75.2012476 43.4899025,76.3178168 C42.2130214,75.2010916 40.5618713,74.56577 38.8294737,74.56577 C37.097076,74.56577 35.4459259,75.2012476 34.1690448,76.3178168 C32.8921637,75.2010916 31.2410136,74.56577 29.508616,74.56577 C27.7762183,74.56577 26.1250682,75.2012476 24.8481871,76.3178168 C23.571306,75.2010916 21.9201559,74.56577 20.1877583,74.56577 C19.9499415,74.56577 19.7139961,74.5787135 19.479922,74.6024172 L19.479922,29.7319298 C19.479922,25.4786745 20.8405458,21.4395322 23.4148928,18.0511501 C23.8880312,17.428616 23.7665497,16.5403509 23.1440156,16.0673684 C22.5211696,15.5939181 21.6329045,15.7157115 21.1602339,16.3382456 C18.2092788,20.2231579 16.6490448,24.8547368 16.6490448,29.7319298 L16.6490448,75.5173489 C16.2518519,75.7469006 15.8758674,76.0138791 15.5281092,76.3178168 C14.5155556,75.4320468 13.2669006,74.8508382 11.9295127,74.6474854 L11.9295127,29.7319298 C11.9295127,14.8990253 23.9968811,2.83165692 38.8297856,2.83165692 C53.6626901,2.83165692 65.7299025,14.8990253 65.7299025,29.7319298 L65.7299025,74.6474854 Z" id="Shape"></path>
                        </g>
                    </g>
                </g>
            </g>
        </g>
    </g>
</svg>

<svg width="78" height="80" viewBox="0 0 78 80" xmlns="http://www.w3.org/2000/svg">
    <title>
        tombstone
    </title>
    <g fill="#848E99" fill-rule="nonzero">
        <circle cx="45.437" cy="61.823" r="1.416"/>
        <circle cx="51.1" cy="67.487" r="1.416"/>
        <circle cx="26.559" cy="67.487" r="1.416"/>
        <path d="M47.325 35.867h-16.99a1.416 1.416 0 1 0 0 2.832h16.99a1.416 1.416 0 1 0 0-2.832z"/>
        <path d="M47.325 28.316h-16.99a1.416 1.416 0 1 0 0 2.832h16.99a1.416 1.416 0 1 0 0-2.832z"/>
        <path d="M38.83 7.551c-4.877 0-9.509 1.56-13.394 4.512a1.416 1.416 0 0 0 1.713 2.255 19.158 19.158 0 0 1 11.68-3.935c10.67 0 19.35 8.68 19.35 19.349v20.293a1.416 1.416 0 1 0 2.832 0V29.732c0-12.23-9.95-22.181-22.181-22.181z"/>
        <path d="M76.113 74.566a7.08 7.08 0 0 0-4.66 1.752 7.086 7.086 0 0 0-2.892-1.525V29.732C68.561 13.338 55.224 0 38.83 0 22.436 0 9.098 13.338 9.098 29.732v45.06a7.091 7.091 0 0 0-2.89 1.526 7.08 7.08 0 0 0-4.661-1.752 1.416 1.416 0 1 0 0 2.831c1.394 0 2.7.687 3.496 1.837a1.416 1.416 0 0 0 2.329 0 4.253 4.253 0 0 1 3.496-1.837c1.393 0 2.7.687 3.495 1.837a1.416 1.416 0 0 0 2.33 0 4.253 4.253 0 0 1 3.495-1.837c1.394 0 2.701.687 3.496 1.837a1.416 1.416 0 0 0 2.33 0 4.253 4.253 0 0 1 3.495-1.837c1.394 0 2.701.687 3.496 1.837a1.416 1.416 0 0 0 2.33 0 4.253 4.253 0 0 1 3.495-1.837c1.394 0 2.7.687 3.496 1.837a1.416 1.416 0 0 0 2.33 0 4.253 4.253 0 0 1 3.495-1.837c1.394 0 2.7.687 3.496 1.837a1.416 1.416 0 0 0 2.33 0 4.253 4.253 0 0 1 3.495-1.837c1.394 0 2.7.687 3.496 1.837a1.416 1.416 0 0 0 2.33 0 4.253 4.253 0 0 1 3.495-1.837c1.394 0 2.7.687 3.496 1.837a1.416 1.416 0 0 0 2.33 0 4.253 4.253 0 0 1 3.495-1.837 1.416 1.416 0 1 0-.001-2.831zm-10.383.081a7.086 7.086 0 0 0-3.598 1.67 7.094 7.094 0 0 0-1.121-.8V55.688a1.416 1.416 0 1 0-2.832 0v18.914a7.08 7.08 0 0 0-5.368 1.715 7.08 7.08 0 0 0-4.66-1.751 7.08 7.08 0 0 0-4.661 1.752 7.08 7.08 0 0 0-4.66-1.752 7.08 7.08 0 0 0-4.661 1.752 7.08 7.08 0 0 0-4.66-1.752 7.08 7.08 0 0 0-4.66 1.752 7.08 7.08 0 0 0-5.37-1.716v-44.87c0-4.253 1.362-8.292 3.936-11.68a1.416 1.416 0 1 0-2.255-1.714 21.97 21.97 0 0 0-4.511 13.394v45.785c-.397.23-.773.497-1.12.8a7.084 7.084 0 0 0-3.6-1.67V29.732c0-14.833 12.068-26.9 26.9-26.9 14.834 0 26.9 12.067 26.9 26.9v44.915z"/>
    </g>
</svg>
